<?xml version="1.0" encoding="UTF-8"?>
<map version="1.10" tiledversion="1.12.2" orientation="orthogonal" renderorder="right-down" width="20" height="20" tilewidth="16" tileheight="16" infinite="0" nextlayerid="6" nextobjectid="6">
 <tileset firstgid="1" source="Wood set 1 free ver.tsx"/>
 <tileset firstgid="885" source="interiors_demo.tsx"/>
 <tileset firstgid="1061" source="PPFurniture Pack-FreeV.tsx"/>
 <tileset firstgid="1991" source="Basic Furniture.tsx"/>
 <tileset firstgid="2045" source="kitchen_LRK.tsx"/>
 <tileset firstgid="2695" source="livingroom_LRK.tsx"/>
 <layer id="1" name="ground" width="20" height="20">
  <data encoding="csv">
0,0,0,0,0,0,0,0,0,0,0,0,0,0,0,0,0,0,0,0,
0,0,0,0,0,0,0,0,0,0,0,0,0,0,0,0,0,0,0,0,
0,0,0,0,0,0,0,0,0,0,0,0,0,0,0,0,0,0,0,0,
0,0,0,0,0,0,0,0,0,0,0,0,0,0,0,0,0,0,0,0,
0,0,0,0,0,0,0,0,0,0,0,0,0,0,0,0,0,0,0,0,
0,0,0,0,0,0,0,0,0,0,0,0,0,0,0,0,0,0,0,0,
0,0,0,0,0,14,15,16,17,18,19,20,21,22,23,0,0,0,0,0,
0,0,0,0,0,48,49,50,51,52,53,54,55,56,57,0,0,0,0,0,
0,0,0,0,0,82,83,84,85,86,87,88,89,90,91,0,0,0,0,0,
0,0,0,0,0,116,117,118,119,120,121,122,123,124,125,0,0,0,0,0,
0,0,0,0,0,150,151,152,153,154,155,156,157,158,159,0,0,0,0,0,
0,0,0,0,0,184,185,186,187,188,189,190,191,192,193,0,0,0,0,0,
0,0,0,0,0,218,219,220,221,222,223,224,225,226,227,0,0,0,0,0,
0,0,0,0,0,252,253,254,255,256,257,258,259,260,261,0,0,0,0,0,
0,0,0,0,0,286,287,288,289,290,291,292,293,294,295,0,0,0,0,0,
0,0,0,0,0,320,321,322,323,324,325,326,327,328,329,0,0,0,0,0,
0,0,0,0,0,0,0,0,0,0,0,0,0,0,0,0,0,0,0,0,
0,0,0,0,0,0,0,0,0,0,0,0,0,0,0,0,0,0,0,0,
0,0,0,0,0,0,0,0,0,0,0,0,0,0,0,0,0,0,0,0,
0,0,0,0,0,0,0,0,0,0,0,0,0,0,0,0,0,0,0,0
</data>
 </layer>
 <layer id="3" name="decoration" width="20" height="20">
  <data encoding="csv">
0,0,0,0,0,0,0,0,0,0,0,0,0,0,0,0,0,0,0,0,
0,0,0,0,0,0,0,0,0,0,0,0,0,0,0,0,0,0,0,0,
0,0,0,0,0,0,0,0,0,0,0,0,0,0,0,0,0,0,0,0,
0,0,0,0,0,0,0,0,0,0,0,0,0,0,0,0,0,0,0,0,
0,0,0,0,0,0,0,0,0,0,0,0,0,0,0,0,0,0,0,0,
0,0,0,0,0,0,0,0,0,0,0,0,0,0,0,0,0,0,0,0,
0,0,0,0,0,0,0,0,0,0,0,0,0,0,0,0,0,0,0,0,
0,0,0,0,0,0,0,1710,0,1023,1024,0,0,0,0,0,0,0,0,0,
0,0,0,0,0,0,1774,1775,1649,1039,1040,0,0,0,0,0,0,0,0,0,
0,0,0,0,0,0,1804,1805,1679,1055,1056,0,0,0,0,0,0,0,0,0,
0,0,0,0,0,0,2039,2040,0,0,0,0,3055,3056,0,2572,2573,0,0,0,
0,0,0,0,0,0,1018,1019,1020,1659,3061,0,3094,3095,0,0,0,0,0,0,
0,0,0,0,0,0,1034,1035,1036,1689,3100,0,3090,3091,0,0,0,0,0,0,
0,0,0,0,0,0,0,0,0,0,3061,0,3058,3059,0,0,0,0,0,0,
0,0,0,0,0,0,0,0,0,0,3100,0,3097,3098,0,0,0,0,0,0,
0,0,0,0,0,0,573,574,575,0,0,0,3168,0,0,0,0,0,0,0,
0,0,0,0,0,0,0,0,0,0,0,0,0,0,0,0,0,0,0,0,
0,0,0,0,0,0,0,0,0,0,0,0,0,0,0,0,0,0,0,0,
0,0,0,0,0,0,0,0,0,0,0,0,0,0,0,0,0,0,0,0,
0,0,0,0,0,0,0,0,0,0,0,0,0,0,0,0,0,0,0,0
</data>
 </layer>
 <layer id="4" name="decoration_top" width="20" height="20">
  <data encoding="csv">
0,0,0,0,0,0,0,0,0,0,0,0,0,0,0,0,0,0,0,0,
0,0,0,0,0,0,0,0,0,0,0,0,0,0,0,0,0,0,0,0,
0,0,0,0,0,0,0,0,0,0,0,0,0,0,0,0,0,0,0,0,
0,0,0,0,0,0,0,0,0,0,0,0,0,0,0,0,0,0,0,0,
0,0,0,0,0,0,0,0,0,0,0,0,0,0,0,0,0,0,0,0,
0,0,0,0,0,0,0,0,0,0,0,0,0,0,0,0,0,0,0,0,
0,0,0,0,0,0,0,0,0,0,0,0,0,0,0,0,0,0,0,0,
0,0,0,0,0,0,0,0,0,0,0,0,0,0,0,0,0,0,0,0,
0,0,0,0,0,0,0,0,0,0,0,0,0,0,0,0,0,0,0,0,
0,0,0,0,0,0,0,0,0,0,0,0,0,0,0,0,0,0,0,0,
0,0,0,0,0,0,0,0,0,0,0,0,0,0,0,0,0,0,0,0,
0,0,0,0,0,0,0,0,0,0,0,0,3051,3052,0,0,0,0,0,0,
0,0,0,0,0,0,0,0,0,0,0,0,0,0,0,0,0,0,0,0,
0,0,0,0,0,0,0,0,0,0,0,0,3129,3130,0,0,0,0,0,0,
0,0,0,0,0,0,1647,0,0,0,0,0,0,0,0,0,0,0,0,0,
0,0,0,0,0,0,1677,0,0,0,0,0,0,0,0,0,0,0,0,0,
0,0,0,0,0,0,0,0,0,0,0,0,0,0,0,0,0,0,0,0,
0,0,0,0,0,0,0,0,0,0,0,0,0,0,0,0,0,0,0,0,
0,0,0,0,0,0,0,0,0,0,0,0,0,0,0,0,0,0,0,0,
0,0,0,0,0,0,0,0,0,0,0,0,0,0,0,0,0,0,0,0
</data>
 </layer>
 <objectgroup id="2" name="objects">
  <object id="1" name="HouseEntry" type="player_spawn" x="121.5" y="246.5">
   <point/>
  </object>
  <object id="5" name="Stairs" type="stairs" x="189" y="148.5">
   <point/>
  </object>
 </objectgroup>
 <objectgroup id="5" name="collision">
  <object id="2" x="92.25" y="257.25" width="132.5" height="4.25"/>
 </objectgroup>
</map>
