<?xml version="1.0" encoding="UTF-8"?>
<map version="1.10" tiledversion="1.12.2" orientation="orthogonal" renderorder="right-down" width="20" height="20" tilewidth="16" tileheight="16" infinite="0" nextlayerid="7" nextobjectid="19">
 <tileset firstgid="1" source="Wood set 1 free ver.tsx"/>
 <tileset firstgid="885" source="livingroom_LRK.tsx"/>
 <tileset firstgid="1899" source="interiors_demo.tsx"/>
 <tileset firstgid="2075" source="easel.tsx"/>
 <tileset firstgid="2091" source="Interiors_free_16x16.tsx"/>
 <tileset firstgid="3515" source="paradal1.tsx"/>
 <layer id="1" name="ground" width="20" height="20">
  <data encoding="csv">
0,0,0,0,0,0,0,0,0,0,0,0,0,0,0,0,0,0,0,0,
0,0,0,0,0,0,0,0,0,0,0,0,0,0,0,0,0,0,0,0,
0,0,0,0,0,0,0,0,0,0,0,0,0,0,0,0,0,0,0,0,
0,0,0,0,0,0,0,0,0,0,0,0,0,0,0,0,0,0,0,0,
0,0,0,0,0,0,0,0,0,0,0,0,0,0,0,0,0,0,0,0,
0,0,0,0,0,14,15,16,17,18,19,20,21,22,23,0,0,0,0,0,
0,0,0,0,0,48,65,66,66,66,66,66,65,66,57,0,0,0,0,0,
0,0,0,0,0,82,99,100,100,100,100,100,99,100,91,0,0,0,0,0,
0,0,0,0,0,116,117,118,119,120,121,122,542,543,125,0,0,0,0,0,
0,0,0,0,0,150,151,152,153,154,155,156,576,577,159,0,0,0,0,0,
0,0,0,0,0,184,185,186,187,188,189,190,191,192,193,0,0,0,0,0,
0,0,0,0,0,218,219,220,221,222,223,224,225,226,227,0,0,0,0,0,
0,0,0,0,0,252,253,254,255,256,257,258,259,260,261,0,0,0,0,0,
0,0,0,0,0,286,287,288,289,290,291,292,293,294,295,0,0,0,0,0,
0,0,0,0,0,320,321,322,323,324,325,326,327,328,329,0,0,0,0,0,
0,0,0,0,0,354,355,356,357,358,359,360,361,362,363,0,0,0,0,0,
0,0,0,0,0,0,0,0,0,0,0,0,0,0,0,0,0,0,0,0,
0,0,0,0,0,0,0,0,0,0,0,0,0,0,0,0,0,0,0,0,
0,0,0,0,0,0,0,0,0,0,0,0,0,0,0,0,0,0,0,0,
0,0,0,0,0,0,0,0,0,0,0,0,0,0,0,0,0,0,0,0
</data>
 </layer>
 <layer id="3" name="decoration" width="20" height="20">
  <data encoding="csv">
0,0,0,0,0,0,0,0,0,0,0,0,0,0,0,0,0,0,0,0,
0,0,0,0,0,0,0,0,0,0,0,0,0,0,0,0,0,0,0,0,
0,0,0,0,0,0,0,0,0,0,0,0,0,0,0,0,0,0,0,0,
0,0,0,0,0,0,0,0,0,0,0,0,0,0,0,0,0,0,0,0,
0,0,0,0,0,0,0,0,0,0,0,0,0,0,0,0,0,0,0,0,
0,0,0,0,0,0,0,0,0,0,0,0,0,0,0,0,0,0,0,0,
0,0,0,0,0,0,0,954,955,0,2074,0,1905,1906,0,0,0,0,0,0,
0,0,0,0,0,0,0,993,994,0,0,0,1921,1922,0,0,0,0,0,0,
0,0,0,0,0,0,0,1032,1033,0,0,0,2076,2077,0,0,0,0,0,0,
0,0,0,0,0,0,0,0,0,0,0,0,2080,2081,0,0,0,0,0,0,
0,0,0,0,0,0,0,1942,1943,1944,1940,0,2084,2085,0,0,0,0,0,0,
0,0,0,0,0,0,0,1958,1959,1960,1956,0,2088,2089,0,0,0,0,0,0,
0,0,0,0,0,0,0,1974,1975,1976,0,0,0,0,0,0,0,0,0,0,
0,0,0,0,0,0,0,1990,1991,1992,0,0,610,611,0,0,0,0,0,0,
0,0,0,0,0,0,0,0,0,0,0,0,644,645,0,0,0,0,0,0,
0,0,0,0,0,0,0,0,0,0,0,0,0,0,0,0,0,0,0,0,
0,0,0,0,0,0,0,0,0,0,0,0,0,0,0,0,0,0,0,0,
0,0,0,0,0,0,0,0,0,0,0,0,0,0,0,0,0,0,0,0,
0,0,0,0,0,0,0,0,0,0,0,0,0,0,0,0,0,0,0,0,
0,0,0,0,0,0,0,0,0,0,0,0,0,0,0,0,0,0,0,0
</data>
 </layer>
 <layer id="4" name="decoration_top" width="20" height="20">
  <data encoding="csv">
0,0,0,0,0,0,0,0,0,0,0,0,0,0,0,0,0,0,0,0,
0,0,0,0,0,0,0,0,0,0,0,0,0,0,0,0,0,0,0,0,
0,0,0,0,0,0,0,0,0,0,0,0,0,0,0,0,0,0,0,0,
0,0,0,0,0,0,0,0,0,0,0,0,0,0,0,0,0,0,0,0,
0,0,0,0,0,0,0,0,0,0,0,0,0,0,0,0,0,0,0,0,
0,0,0,0,0,0,0,0,0,0,0,0,0,0,0,0,0,0,0,0,
0,0,0,0,0,0,0,0,0,0,0,0,2007,2008,0,0,0,0,0,0,
0,0,0,0,0,0,0,0,0,0,0,0,2023,2024,0,0,0,0,0,0,
0,0,0,0,0,0,0,0,0,0,0,0,0,0,0,0,0,0,0,0,
0,0,0,0,0,0,0,0,0,0,0,0,0,0,0,0,0,0,0,0,
0,0,0,0,0,0,0,0,0,0,0,0,0,0,0,0,0,0,0,0,
0,0,0,0,0,0,0,0,0,0,0,0,0,0,0,0,0,0,0,0,
0,0,0,0,0,0,0,3515,0,0,0,0,0,0,0,0,0,0,0,0,
0,0,0,0,0,0,0,0,0,0,0,0,0,0,0,0,0,0,0,0,
0,0,0,0,0,0,0,0,0,0,0,0,0,0,0,0,0,0,0,0,
0,0,0,0,0,0,0,0,0,0,0,0,0,0,0,0,0,0,0,0,
0,0,0,0,0,0,0,0,0,0,0,0,0,0,0,0,0,0,0,0,
0,0,0,0,0,0,0,0,0,0,0,0,0,0,0,0,0,0,0,0,
0,0,0,0,0,0,0,0,0,0,0,0,0,0,0,0,0,0,0,0,
0,0,0,0,0,0,0,0,0,0,0,0,0,0,0,0,0,0,0,0
</data>
 </layer>
 <objectgroup id="5" name="objects">
  <object id="1" name="stairs_down" x="187.333" y="144">
   <point/>
  </object>
  <object id="2" name="stairs_up" x="189" y="232.333">
   <point/>
  </object>
  <object id="4" name="next_to_bed" x="178.091" y="200.909">
   <point/>
  </object>
  <object id="9" name="thought" x="173.273" y="200">
   <properties>
    <property name="text" value="My baby is still asleep. I better wake up Bozo and prepare a nice surprise for her birthday"/>
   </properties>
   <point/>
  </object>
  <object id="13" name="thought" x="158.545" y="148.545">
   <properties>
    <property name="text" value="&quot;Hello little boy. What do u say? Ready to give mommy her birthday surprise?&quot;"/>
   </properties>
   <point/>
  </object>
 </objectgroup>
 <objectgroup id="6" name="collision">
  <object id="3" x="94.3333" y="241.333" width="130.667" height="8.33333"/>
 </objectgroup>
</map>
