<?xml version="1.0" encoding="UTF-8"?>
<map version="1.10" tiledversion="1.12.2" orientation="orthogonal" renderorder="right-down" width="20" height="20" tilewidth="16" tileheight="16" infinite="0" nextlayerid="6" nextobjectid="9">
 <tileset firstgid="1" source="Wood set 1 free ver.tsx"/>
 <tileset firstgid="885" source="kitchen_LRK.tsx"/>
 <tileset firstgid="1535" source="Interiors_free_16x16.tsx"/>
 <tileset firstgid="2959" source="PPFurniture Pack-FreeV.tsx"/>
 <tileset firstgid="3889" source="livingroom_LRK.tsx"/>
 <layer id="1" name="ground" width="20" height="20">
  <data encoding="csv">
0,0,0,0,0,0,0,0,0,0,0,0,0,0,0,0,0,0,0,0,
0,0,0,0,0,0,0,0,0,0,0,0,0,0,0,0,0,0,0,0,
0,0,0,0,0,0,0,0,0,0,0,0,0,0,0,0,0,0,0,0,
0,0,0,0,0,0,0,0,0,0,0,0,0,0,0,0,0,0,0,0,
0,0,0,0,0,0,0,0,0,0,0,0,0,0,0,0,0,0,0,0,
0,0,0,0,0,0,0,0,0,0,0,0,0,0,0,0,0,0,0,0,
0,0,0,0,0,0,0,25,26,27,28,29,30,31,32,33,0,0,0,0,
0,0,0,0,0,0,0,59,60,61,62,63,64,65,66,67,0,0,0,0,
0,0,0,0,0,0,0,93,94,95,96,97,98,99,100,101,0,0,0,0,
0,0,0,0,0,0,0,127,128,129,130,131,132,221,221,135,0,0,0,0,
0,0,0,0,0,0,0,161,162,163,164,165,221,221,221,169,0,0,0,0,
0,0,0,0,0,0,0,195,196,197,198,199,221,221,221,203,0,0,0,0,
0,0,0,0,0,0,0,229,230,231,232,233,234,235,236,237,0,0,0,0,
0,0,0,0,0,0,0,263,264,265,266,267,268,269,270,271,0,0,0,0,
0,0,0,0,0,0,0,297,298,299,300,301,302,542,543,305,0,0,0,0,
0,0,0,0,0,0,0,331,332,231,231,231,336,576,577,339,0,0,0,0,
0,0,0,0,0,0,0,0,0,0,0,0,0,0,0,0,0,0,0,0,
0,0,0,0,0,0,0,0,0,0,0,0,0,0,0,0,0,0,0,0,
0,0,0,0,0,0,0,0,0,0,0,0,0,0,0,0,0,0,0,0,
0,0,0,0,0,0,0,0,0,0,0,0,0,0,0,0,0,0,0,0
</data>
 </layer>
 <layer id="2" name="decoration" width="20" height="20">
  <data encoding="csv">
0,0,0,0,0,0,0,0,0,0,0,0,0,0,0,0,0,0,0,0,
0,0,0,0,0,0,0,0,0,0,0,0,0,0,0,0,0,0,0,0,
0,0,0,0,0,0,0,0,0,0,0,0,0,0,0,0,0,0,0,0,
0,0,0,0,0,0,0,0,0,0,0,0,0,0,0,0,0,0,0,0,
0,0,0,0,0,0,0,0,0,0,0,0,0,0,0,0,0,0,0,0,
0,0,0,0,0,0,0,0,0,0,0,0,0,0,0,0,0,0,0,0,
0,0,0,0,0,0,0,0,0,0,0,0,0,0,0,0,0,0,0,0,
0,0,0,0,0,0,0,0,0,0,0,0,933,934,0,0,0,0,0,0,
0,0,0,0,0,0,0,0,3209,3210,3247,3248,985,986,0,0,0,0,0,0,
0,0,0,0,0,0,0,0,3239,3240,3277,3278,1011,1012,0,0,0,0,0,0,
0,0,0,0,0,0,0,0,3269,3270,0,0,0,0,0,0,0,0,0,0,
0,0,0,0,0,0,0,0,0,0,0,0,0,3322,3323,0,0,0,0,0,
0,0,0,0,0,0,0,0,4249,4250,0,0,0,3352,3353,0,0,0,0,0,
0,0,0,0,0,0,0,0,4288,4289,0,0,604,605,606,0,0,0,0,0,
0,0,0,0,0,0,0,0,4410,4411,4254,0,0,0,0,0,0,0,0,0,
0,0,0,0,0,0,0,0,4449,4450,4293,0,0,0,0,0,0,0,0,0,
0,0,0,0,0,0,0,0,0,0,0,0,0,0,0,0,0,0,0,0,
0,0,0,0,0,0,0,0,0,0,0,0,0,0,0,0,0,0,0,0,
0,0,0,0,0,0,0,0,0,0,0,0,0,0,0,0,0,0,0,0,
0,0,0,0,0,0,0,0,0,0,0,0,0,0,0,0,0,0,0,0
</data>
 </layer>
 <layer id="3" name="decoration_top" width="20" height="20">
  <data encoding="csv">
0,0,0,0,0,0,0,0,0,0,0,0,0,0,0,0,0,0,0,0,
0,0,0,0,0,0,0,0,0,0,0,0,0,0,0,0,0,0,0,0,
0,0,0,0,0,0,0,0,0,0,0,0,0,0,0,0,0,0,0,0,
0,0,0,0,0,0,0,0,0,0,0,0,0,0,0,0,0,0,0,0,
0,0,0,0,0,0,0,0,0,0,0,0,0,0,0,0,0,0,0,0,
0,0,0,0,0,0,0,0,0,0,0,0,0,0,0,0,0,0,0,0,
0,0,0,0,0,0,0,0,0,0,0,0,0,0,0,0,0,0,0,0,
0,0,0,0,0,0,0,0,0,0,1746,1747,0,0,0,0,0,0,0,0,
0,0,0,0,0,0,0,0,3202,3267,1762,1763,0,0,0,0,0,0,0,0,
0,0,0,0,0,0,0,0,0,0,0,0,0,0,0,0,0,0,0,0,
0,0,0,0,0,0,0,0,0,0,0,0,0,0,0,0,0,0,0,0,
0,0,0,0,0,0,0,0,0,0,0,0,0,0,0,0,0,0,0,0,
0,0,0,0,0,0,0,0,0,0,0,0,0,0,0,0,0,0,0,0,
0,0,0,0,0,0,0,0,0,0,0,0,0,0,0,0,0,0,0,0,
0,0,0,0,0,0,0,0,0,0,0,0,0,0,0,0,0,0,0,0,
0,0,0,0,0,0,0,0,0,0,0,0,0,0,0,0,0,0,0,0,
0,0,0,0,0,0,0,0,0,0,0,0,0,0,0,0,0,0,0,0,
0,0,0,0,0,0,0,0,0,0,0,0,0,0,0,0,0,0,0,0,
0,0,0,0,0,0,0,0,0,0,0,0,0,0,0,0,0,0,0,0,
0,0,0,0,0,0,0,0,0,0,0,0,0,0,0,0,0,0,0,0
</data>
 </layer>
 <objectgroup id="4" name="objects">
  <object id="1" name="stairs_down" x="201.838" y="240.334">
   <point/>
  </object>
  <object id="4" name="fridge" x="207.987" y="151.044">
   <point/>
  </object>
  <object id="6" name="oven" x="215.69" y="192.481">
   <point/>
  </object>
  <object id="8" name="oven_cake" x="141.878" y="159.293">
   <point/>
  </object>
 </objectgroup>
 <objectgroup id="5" name="collision">
  <object id="3" x="127.786" y="257.444" width="112.281" height="4.81203"/>
 </objectgroup>
</map>
