<?xml version="1.0" encoding="UTF-8"?>
<map version="1.10" tiledversion="1.12.2" orientation="orthogonal" renderorder="right-down" width="40" height="25" tilewidth="16" tileheight="16" infinite="0" nextlayerid="6" nextobjectid="51">
 <tileset firstgid="1" source="PPFurniture Pack-FreeV.tsx"/>
 <tileset firstgid="931" source="Wooden House.tsx"/>
 <tileset firstgid="966" source="Doors.tsx"/>
 <tileset firstgid="970" source="Grass_Middle.tsx"/>
 <tileset firstgid="971" source="House_1_Wood_Base_Blue.tsx"/>
 <tileset firstgid="1019" source="Path_Tile.tsx"/>
 <tileset firstgid="1037" source="Outdoor_Decor_Free.tsx"/>
 <tileset firstgid="1121" source="Oak_Tree_Small.tsx"/>
 <tileset firstgid="1139" source="Beach_Tile.tsx"/>
 <tileset firstgid="1154" source="Water_Tile.tsx"/>
 <tileset firstgid="1172" source="Fences.tsx"/>
 <tileset firstgid="1188" source="Basic Grass Biom things 1.tsx"/>
 <tileset firstgid="1233" source="Basic Plants.tsx"/>
 <tileset firstgid="1245" source="Free_Chicken_House.tsx"/>
 <tileset firstgid="1254" source="Paths.tsx"/>
 <layer id="1" name="ground" width="40" height="25">
  <data encoding="csv">
970,970,970,970,970,970,970,970,970,970,970,970,970,970,970,970,970,970,970,970,970,970,970,970,970,970,970,970,970,970,970,970,970,970,970,970,970,970,970,970,
970,970,970,970,970,970,970,970,970,970,970,970,970,970,970,970,970,970,970,970,970,970,970,970,970,970,970,970,970,970,970,970,970,970,970,970,970,970,970,970,
970,970,970,970,970,970,970,970,970,970,970,970,970,970,970,970,970,970,970,970,970,970,970,970,970,970,970,970,970,970,970,970,970,970,970,970,970,970,970,970,
970,970,970,970,970,970,970,970,970,970,970,970,970,970,970,970,970,970,970,970,970,970,970,970,970,970,970,970,970,970,970,970,970,970,970,970,970,970,970,970,
970,970,970,970,970,970,970,970,970,970,970,970,970,970,970,970,970,970,970,970,970,970,970,970,970,970,970,970,970,970,970,970,970,970,970,970,970,970,970,970,
970,970,970,970,970,970,970,970,970,970,970,970,970,970,970,970,970,970,970,970,970,970,970,970,970,970,970,970,970,970,970,970,970,970,970,970,970,970,970,970,
970,970,970,970,970,970,970,970,970,970,970,970,970,970,970,970,970,970,970,970,970,970,970,970,970,970,970,970,970,970,970,970,970,970,970,970,970,970,970,970,
970,970,970,970,970,970,970,970,970,970,970,970,970,970,970,970,970,970,970,970,970,970,970,970,970,970,970,970,970,970,970,970,970,970,970,970,970,970,970,970,
970,970,970,970,970,970,970,970,970,970,970,970,970,970,970,970,970,970,970,970,970,970,970,970,970,970,970,970,970,970,970,970,970,970,970,970,970,970,970,970,
970,970,970,970,970,970,970,970,970,970,970,970,970,970,970,970,970,970,970,970,970,970,970,970,970,970,970,970,970,970,970,970,970,970,970,970,970,970,970,970,
970,970,970,970,970,970,970,970,970,970,970,970,970,970,970,970,970,970,970,970,970,970,970,970,970,970,970,970,970,970,970,970,970,970,970,970,970,970,970,970,
1150,1150,1143,1145,970,970,970,970,970,970,970,970,970,970,970,970,970,970,970,970,970,970,970,970,970,970,970,970,970,970,970,970,970,970,970,970,970,970,970,970,
1158,1158,1144,1145,1145,970,970,970,970,970,970,970,970,970,970,970,970,970,970,970,970,970,970,970,970,970,970,970,970,970,970,970,970,970,970,970,970,970,970,970,
1158,1158,1144,1145,1145,1145,970,970,970,970,970,970,970,970,970,970,970,970,970,970,970,970,970,970,970,970,970,970,970,970,970,970,970,970,970,970,970,970,970,970,
1158,1158,1144,1145,1145,1145,970,970,970,970,970,970,970,970,970,970,970,970,970,970,970,970,970,970,970,970,970,970,970,970,970,970,970,970,970,970,970,970,970,970,
1158,1158,1144,1145,1145,1145,1145,970,970,970,970,970,970,970,970,970,970,970,970,970,970,970,970,970,970,970,970,970,970,970,970,970,970,970,970,970,970,970,970,970,
1158,1158,1144,1145,1145,1145,1145,1145,970,970,970,970,970,970,970,970,970,970,970,970,970,970,970,970,970,970,970,970,970,970,970,970,970,970,970,970,970,970,970,970,
1158,1158,1144,1145,1145,1145,1145,1145,970,970,970,970,970,970,970,970,970,970,970,970,970,970,970,970,970,970,970,970,970,970,970,970,970,970,970,970,970,970,970,970,
1158,1158,1144,1145,1145,1145,1145,1145,1145,970,970,970,970,970,970,970,970,970,970,970,970,970,970,970,970,970,970,970,970,970,970,970,970,970,970,970,970,970,970,970,
1158,1158,1144,1145,1145,1145,1145,1145,1145,970,970,970,970,970,970,970,970,970,970,970,970,970,970,970,970,970,970,970,970,970,970,970,970,970,970,970,970,970,970,970,
1158,1158,1144,1145,1145,1145,1145,1145,1145,970,970,970,970,970,970,970,970,970,970,970,970,970,970,970,970,970,970,970,970,970,970,970,970,970,970,970,970,970,970,970,
1158,1158,1144,1145,1145,1145,1145,1145,1145,970,970,970,970,970,970,970,970,970,970,970,970,970,970,970,970,970,970,970,970,970,970,970,970,970,970,970,970,970,970,970,
1158,1158,1144,1145,1145,1145,1145,1145,1145,970,970,970,970,970,970,970,970,970,970,970,970,970,970,970,970,970,970,970,970,970,970,970,970,970,970,970,970,970,970,970,
1158,1158,1144,1145,1145,1145,1145,1145,1145,970,970,970,970,970,970,970,970,970,970,970,970,970,970,970,970,970,970,970,970,970,970,970,970,970,970,970,970,970,970,970,
1158,1158,1144,1145,1145,1145,1145,1145,1145,970,970,970,970,970,970,970,970,970,970,970,970,970,970,970,970,970,970,970,970,970,970,970,970,970,970,970,970,970,970,970
</data>
 </layer>
 <layer id="4" name="decoration" width="40" height="25">
  <data encoding="csv">
0,0,0,0,0,0,1177,1174,1174,1174,1174,1174,1174,1174,1174,1174,1178,1174,1174,1174,1174,1174,1174,1174,1174,1174,1174,1174,1174,1174,1174,1174,1174,1179,0,0,0,0,0,0,
0,0,0,0,0,0,1176,1057,1057,1057,1057,0,0,0,0,0,1176,1055,1055,1055,0,0,0,0,1191,1192,0,971,972,0,0,975,976,1176,0,0,0,1129,1130,0,
0,0,0,0,0,0,1176,1057,0,0,0,0,0,0,0,0,1176,1054,1054,1055,0,1191,1192,0,1200,1201,0,977,0,0,0,0,982,1176,0,0,0,1135,1136,0,
0,0,0,0,0,0,1176,1057,0,0,0,0,0,0,0,0,1176,1055,1055,1055,0,1200,1201,0,0,0,0,983,984,985,986,987,988,1176,1129,1130,0,0,0,0,
0,0,0,0,0,0,1181,1174,0,0,1174,1174,1174,1174,1174,1174,1187,1054,1055,1054,0,0,0,0,1189,1190,0,989,990,991,992,993,994,1176,1135,1136,0,1129,1130,0,
0,0,0,0,0,0,1176,0,0,0,0,0,0,0,0,0,0,0,0,0,0,0,0,0,1198,1199,0,995,996,997,998,999,1000,1176,0,0,0,1135,1136,0,
0,0,0,0,0,0,1181,1174,0,0,1174,1174,1174,1174,1174,1174,1179,1243,1241,1241,0,0,0,0,0,0,0,0,1002,1003,1004,1005,1006,1176,0,0,0,0,0,0,
0,0,0,0,0,0,1176,0,0,0,0,0,0,1245,1246,1247,1176,1241,1242,1241,0,0,0,0,0,0,0,0,1008,1009,1010,1011,1178,1187,1129,1130,0,1129,1130,0,
0,0,0,0,0,0,1176,0,0,0,0,0,0,1248,1249,1250,1176,1243,1243,1242,0,0,1058,1044,0,1044,1058,1013,1014,1258,1016,1017,1176,0,1135,1136,0,1135,1136,0,
0,0,0,0,0,0,1176,0,0,0,0,0,0,1251,1252,1253,1176,1243,1243,1243,0,0,1095,0,1188,0,1095,0,0,1258,0,0,1176,0,0,0,0,0,0,0,
0,0,0,0,0,0,1176,0,0,0,0,0,0,0,0,0,1176,1242,1242,1242,0,0,1110,0,1197,0,1101,0,0,1258,0,0,1176,1129,1130,0,0,0,0,0,
0,0,0,0,0,0,1176,0,0,0,0,0,0,0,0,0,1176,1242,1242,1242,0,0,1061,1044,1109,1044,1058,0,0,1258,0,0,1176,1135,1136,0,1129,1130,0,0,
0,0,0,0,0,0,1185,1174,1174,1174,1174,1174,1174,1174,1174,1174,1186,1174,1174,1174,1174,1174,1174,1174,1174,1174,1174,1174,0,1258,0,1174,1187,0,0,0,1135,1136,0,0,
0,0,0,0,0,0,0,0,0,0,0,0,0,0,0,0,0,0,0,0,0,0,0,0,0,0,0,0,0,1258,0,0,0,0,1129,1130,0,0,1129,1130,
0,0,0,0,0,0,0,0,0,0,0,0,0,0,0,0,0,0,0,0,0,0,0,0,0,0,0,0,0,1258,0,0,1129,1130,1135,1136,0,0,1135,1136,
0,0,0,0,0,0,0,0,0,0,0,0,0,0,0,0,0,0,0,0,0,0,0,0,0,0,0,0,0,1258,0,0,1135,1136,0,0,1129,1130,0,0,
0,0,0,0,0,0,0,0,0,0,0,0,0,0,0,0,0,0,0,0,0,0,0,0,0,0,0,0,0,1258,0,0,0,0,0,0,1135,1136,0,0,
0,0,0,0,0,0,0,0,0,0,0,0,0,1083,0,0,0,0,0,0,0,0,0,0,0,0,0,0,1083,1258,0,0,0,1129,1130,0,0,0,0,0,
0,0,0,0,0,0,0,0,0,1268,1268,1268,1268,1268,1268,1268,1268,1268,1268,1268,1268,1268,1268,1268,1268,1268,1268,1268,1268,1264,0,1129,1130,1135,1136,0,0,0,0,0,
0,0,0,0,0,0,0,0,0,0,0,0,0,0,0,0,0,0,0,0,0,0,0,0,0,0,0,0,0,0,0,1135,1136,0,0,0,0,1129,1130,0,
0,0,0,0,0,0,0,0,0,0,0,0,1129,1130,0,0,0,0,0,1129,1130,0,0,1129,1130,0,0,1129,1130,0,0,0,0,0,0,0,0,1135,1136,0,
0,0,0,0,0,0,0,0,0,0,0,0,1135,1136,0,0,0,0,0,1135,1136,0,0,1135,1136,0,0,1135,1136,0,1129,1130,0,0,1129,1130,0,0,0,0,
0,0,0,0,0,0,0,0,0,0,0,0,0,0,1129,1130,0,0,0,0,0,0,0,0,0,0,0,0,0,0,1135,1136,0,0,1135,1136,1129,1130,0,0,
0,0,0,0,0,0,0,0,0,0,1129,1130,0,0,1135,1136,0,1129,1130,0,0,1129,1130,0,0,1129,1130,0,0,0,0,0,1129,1130,0,0,1135,1136,0,0,
0,0,0,0,0,0,0,0,0,0,1135,1136,0,0,0,0,0,1135,1136,0,0,1135,1136,0,0,1135,1136,0,0,0,0,0,1135,1136,0,0,0,0,0,0
</data>
 </layer>
 <layer id="5" name="decoration_top" width="40" height="25">
  <data encoding="csv">
0,0,0,0,0,0,0,0,0,0,0,0,0,0,0,0,0,0,0,0,0,0,0,0,0,0,0,0,0,0,0,0,0,0,0,0,0,1123,1124,0,
0,0,0,0,0,0,0,0,0,0,0,0,0,0,0,0,0,0,0,0,0,0,0,0,0,0,0,0,0,973,974,0,0,0,0,0,0,0,0,0,
0,0,0,0,0,0,0,0,0,0,0,0,0,0,0,0,0,0,0,0,0,0,0,0,0,0,0,0,978,979,980,981,0,0,1123,1124,0,0,0,0,
0,0,0,0,0,0,0,0,0,0,0,0,0,0,0,0,0,0,0,0,0,0,0,0,0,0,0,0,0,0,0,0,0,0,0,0,0,1123,1124,0,
0,0,0,0,0,0,0,0,0,0,0,0,0,0,0,0,0,0,0,0,0,0,0,0,0,0,0,0,0,0,0,0,0,0,0,0,0,0,0,0,
0,0,0,0,0,0,0,0,0,0,0,0,0,0,0,0,0,0,0,0,0,0,0,0,0,0,0,0,0,0,0,0,0,0,0,0,0,0,0,0,
0,0,0,0,0,0,0,0,0,0,0,0,0,0,0,0,0,0,0,0,0,0,0,0,0,0,0,0,0,0,0,0,0,0,1123,1124,0,1123,1124,0,
0,0,0,0,0,0,0,0,0,0,0,0,0,0,0,0,0,0,0,0,0,0,0,0,0,0,0,0,0,0,0,0,0,0,0,0,0,0,0,0,
0,0,0,0,0,0,0,0,0,0,0,0,0,0,0,0,0,0,0,0,0,0,0,0,0,0,0,0,0,0,0,0,0,0,0,0,0,0,0,0,
0,0,0,0,0,0,0,0,0,0,0,0,0,0,0,0,0,0,0,0,0,0,0,0,0,0,0,0,0,0,0,0,0,1123,1124,0,0,0,0,0,
0,0,0,0,0,0,0,0,0,0,0,0,0,0,0,0,0,0,0,0,0,0,0,0,0,0,0,0,0,0,0,0,0,0,0,0,1123,1124,0,0,
0,0,0,0,0,0,0,0,0,0,0,0,0,0,0,0,0,0,0,0,0,0,0,0,0,0,0,0,0,0,0,0,0,0,0,0,0,0,0,0,
0,0,0,0,0,0,0,0,0,0,0,0,0,0,0,0,0,0,0,0,0,0,0,0,0,0,0,0,0,0,0,0,0,0,1123,1124,0,0,1123,1124,
0,0,0,0,0,0,0,0,0,0,0,0,0,0,0,0,0,0,0,0,0,0,0,0,0,0,0,0,0,0,0,0,1123,1124,0,0,0,0,0,0,
0,0,0,0,0,0,0,0,0,0,0,0,0,0,0,0,0,0,0,0,0,0,0,0,0,0,0,0,0,0,0,0,0,0,0,0,1123,1124,0,0,
0,0,0,0,0,0,0,0,0,0,0,0,0,1069,0,0,0,0,0,0,0,0,0,0,0,0,0,0,1069,0,0,0,0,0,0,0,0,0,0,0,
0,0,0,0,0,0,0,0,0,0,0,0,0,1076,0,0,0,0,0,0,0,0,0,0,0,0,0,0,1076,0,0,0,0,1123,1124,0,0,0,0,0,
0,0,0,0,0,0,0,0,0,0,0,0,0,0,0,0,0,0,0,0,0,0,0,0,0,0,0,0,0,0,0,1123,1124,0,0,0,0,0,0,0,
0,0,0,0,0,0,0,0,0,0,0,0,0,0,0,0,0,0,0,0,0,0,0,0,0,0,0,0,0,0,0,0,0,0,0,0,0,1123,1124,0,
0,0,0,0,0,0,0,0,0,0,0,0,1123,1124,0,0,0,0,0,1123,1124,0,0,1123,1124,0,0,1123,1124,0,0,0,0,0,0,0,0,0,0,0,
0,0,0,0,0,0,0,0,0,0,0,0,0,0,0,0,0,0,0,0,0,0,0,0,0,0,0,0,0,0,1123,1124,0,0,1123,1124,0,0,0,0,
0,0,0,0,0,0,0,0,0,0,0,0,0,0,1123,1124,0,0,0,0,0,0,0,0,0,0,0,0,0,0,0,0,0,0,0,0,1123,1124,0,0,
0,0,0,0,0,0,0,0,0,0,1123,1124,0,0,0,0,0,1123,1124,0,0,1123,1124,0,0,1123,1124,0,0,0,0,0,1123,1124,0,0,0,0,0,0,
0,0,0,0,0,0,0,0,0,0,0,0,0,0,0,0,0,0,0,0,0,0,0,0,0,0,0,0,0,0,0,0,0,0,0,0,0,0,0,0,
0,0,0,0,0,0,0,0,0,0,0,0,0,0,0,0,0,0,0,0,0,0,0,0,0,0,0,0,0,0,0,0,0,0,0,0,0,0,0,0
</data>
 </layer>
 <objectgroup id="2" name="objects">
  <object id="23" name="Door" type="house_door" x="472.333" y="136"/>
  <object id="39" name="tree" x="400" y="38.25">
   <point/>
  </object>
  <object id="40" name="tree" x="352.5" y="47.75">
   <point/>
  </object>
  <object id="41" name="carrots" x="274.5" y="17" width="41.75" height="58.75"/>
  <object id="42" name="horseradish" x="269.5" y="98.75" width="49.75" height="94.5"/>
  <object id="44" name="coop" x="232.25" y="138.25">
   <point/>
  </object>
  <object id="45" name="picnic_spot" x="89.75" y="299.25">
   <point/>
  </object>
  <object id="49" name="thought" x="461.75" y="157.25" width="20.5" height="38">
   <properties>
    <property name="text" value="At the end of the path lies the beach"/>
   </properties>
  </object>
  <object id="50" name="thought" x="392" y="145.5">
   <properties>
    <property name="text" value="My baby's beautiful garden. She takes so much care of it everyday."/>
   </properties>
   <point/>
  </object>
 </objectgroup>
 <objectgroup id="3" name="collision">
  <object id="32" x="-16" y="2.5" width="14.5" height="400"/>
  <object id="33" x="40" y="175" width="7.5" height="226"/>
  <object id="34" x="-2.5" y="176" width="43.5" height="4"/>
  <object id="35" x="-16" y="-16" width="658.5" height="18.5"/>
  <object id="36" x="637.5" y="-17.5" width="15" height="419"/>
  <object id="37" x="-8.5" y="395" width="653.5" height="16.5"/>
 </objectgroup>
</map>
